X: 86
T:The Mason's Apron
R:reel
S:Kevin Burke and Jackie Daly
D:Kevin Burke: If the Cap Fits.
Z:Barney
M:4/4
L:1/8
K:A
a2 f2|: ec (3ccc Bc  AF| EFAB c2 BA| FB ~B2 cB ~B2| cefg abaf|
e2 cA BF (3FFF| EFAB cABc| dcde fgaf|1 ecBc A2 af:|2 edcB A2 ed||
(3cBA eA fAeA| (3cBA eAfA eA| df ~f2 af ~f2|df ~f2 af ~f2|
=c^c2 ec fcec| Ac(3ccc fcec| dcde fgaf|1 ecBc A2 AB:|2 edcB A2||
